!!!OTL: Achtzehn Jahre alt (129), S. 294
!!!id: T0299
**kern
*clefG2
*k[]
*C:
{8g
=1
8ee
8ee
8dd
8dd
=2
8cc
8cc
4e}
=3
{8g
8g
8f
8f
=4
8a
8a
4g}
=5
{8ee
8ee
8dd
8dd
=6
16cc
16cc
8cc
4e}
=7
{8g
8g
8f
8cc
=8
8b
8dd
8cc}
==
*-
!!!minrhy: 16
!!!meters: 2/4 ]  ZZ[4
!!!cut: Achtzehn Jahre alt (129), S. 294
!!!reg: Luxemburg
!!!trd: Singendes Volk, Esch-Alzette 1937 posth.
!!!rhy1: X_  X_X_X_X_  X_X_X__   (x2)
!!!rhy2: X_X_X_X_  X_X_X__
!!!key: T0299  16  C 2/4 ]  ZZ[4
!!!mod: HEPTATONIK IONISCH]  AMBITUS[8
!!!kad: 353+1
!!!akz: +3+1_56_+3+1_57_
!!!fot: 'a__b__av_c__
!!!for: 'a__av_b__av_
!!!fok: '^d_-__\__/__
!! PHRAS[VORWIEGEND VOLLTAKTIG]
!!!fkt: Liebeslieder
!!!bem: Junglinster, hhh Valentin Santer, 1901
!! THILL, Mathias:
!! PR[34] 2K[0] 2G[15] 3K[0] 3G[9] 4A[6] 4Ü[0] 5A[0] 6K[0] 6G[0]
!! 7K[0] 7G[0] 8A[0] MEHR[0] SI[30] ABS[47] SR[15] SP[15]
!! ST[16] 2k[0] 2g[32] 3k[0] 3g[0] 4d[4] 4ü[0] 5d[0] 6k[0] 6g[0]
!! 7k[0] 7g[0] 8d[0] mehr[0] si[36] dm[-6] sr[32] sp[4]
!! 1F[16] 2F[78] 3F[6] 4F[0] LF[0] 2P[0] 3P[0] 4P[0] TRI[0] DF[3] AB[49]
!! TF[0] U3K[0] U3[0] U4[0] U4Ü[0] U5[6] U6K[0] U6[0] U7K[0] U7[0]
!! N1[42] N2K[0] N2[25] N3K[0] N3[27] N4[0] N4Ü[0] N5[0] N6K[0] N6[0]
!!!n7k: 0] N7[0] O1[0] O2K[0] O2[0] O3K[0] O3[0] HÖ[0
